outputs/icons/file/upload_file_round.svg

<svg xmlns="http://www.w3.org/2000/svg" width="1200" height="1200" fill="none"><g clip-path="url(#a)"><path fill="#000" d="M970.5 370.5 729 129c-18.5-18.5-44-29-70.5-29H300c-55 0-99.5 45-99.5 100l-.5 800c0 55 44.5 100 99.5 100H900c55 0 100-45 100-100V441.5c0-26.5-10.5-52-29.5-71M740 750h-90v150c0 27.5-22.5 50-50 50s-50-22.5-50-50V750h-89.5c-22.5 0-33.5-27-17.5-42.5L583 568c10-9.5 25.5-9.5 35.5 0L758 707.5c15 15.5 4 42.5-18 42.5m-40-300c-27.5 0-50-22.5-50-50V175l275 275z"/></g><defs><clipPath id="a"><path fill="#fff" d="M0 0h1200v1200H0z"/></clipPath></defs></svg>

<svg width="1200" height="1200" viewBox="0 0 1200 1200" fill="none" xmlns="http://www.w3.org/2000/svg"><g clip-path="url(#clip0_238_2796)"><path d="M970.5 370.5L729 129C710.5 110.5 685 100 658.5 100H300C245 100 200.5 145 200.5 200L200 1000C200 1055 244.5 1100 299.5 1100H900C955 1100 1000 1055 1000 1000V441.5C1000 415 989.5 389.5 970.5 370.5ZM740 750H650V900C650 927.5 627.5 950 600 950C572.5 950 550 927.5 550 900V750H460.5C438 750 427 723 443 707.5L583 568C593 558.5 608.5 558.5 618.5 568L758 707.5C773 723 762 750 740 750ZM700 450C672.5 450 650 427.5 650 400V175L925 450H700Z" fill="black"/></g><defs><clipPath id="clip0_238_2796"><path width="24" fill="white" d="M0 0H1200V1200H0V0z"/></clipPath></defs></svg>
